Yaru++/apps/scalable/sigil.svg

<svg enable-background="new" height="256" viewBox="0 0 256 256" width="256" xmlns="http://www.w3.org/2000/svg" xmlns:xlink="http://www.w3.org/1999/xlink">
  <linearGradient id="linearGradient4358" gradientUnits="userSpaceOnUse" x1="88" x2="488" y1="88" y2="488">
    <stop offset="0" stop-opacity=".588235"/>
    <stop offset="1" stop-opacity=".205556"/>
  </linearGradient>
  <filter id="filter4380" color-interpolation-filters="sRGB" height="1.088" width="1.106" x="-.05" y="-.04">
    <feGaussianBlur stdDeviation="8.48"/>
  </filter>
  <filter id="filter4346" color-interpolation-filters="sRGB" height="1.022" width="1.026" x="-.01" y="-.01">
    <feGaussianBlur stdDeviation="2.12"/>
  </filter>
  <path d="m141.84323 74c-70.59344 0-78.18921 7.250835-77.84323 77.98706v146.01294 146.01294c-.34598 70.73623 7.24979 77.98706 77.84323 77.98706h292.31354c70.59344 0 79.78033-7.27652 77.84323-77.98706v-146.01294-146.01294c0-70.737067-7.24979-77.98706-77.84323-77.98706z" filter="url(#filter4346)" opacity=".1" transform="matrix(.5 0 0 .5 -14.116488 -20.825537)"/>
  <path d="m141.84323 74c-70.59344 0-78.18921 7.250835-77.84323 77.98706v146.01294 146.01294c-.34598 70.73623 7.24979 77.98706 77.84323 77.98706h292.31354c70.59344 0 79.78033-7.27652 77.84323-77.98706v-146.01294-146.01294c0-70.737067-7.24979-77.98706-77.84323-77.98706z" fill="url(#linearGradient4358)" filter="url(#filter4380)" opacity=".3" transform="matrix(.5 0 0 .5 -14.116488 -20.825235)"/>
  <path d="m55.695112 13.174464c-36.098811 0-39.983003 3.690159-39.806081 39.689839v74.310167 74.31016c-.176922 35.99969 3.70727 39.68984 39.806081 39.68984h148.387318c36.09881 0 40.77464-3.70276 39.80608-39.68984v-74.31016-74.310167c0-36.00011-3.70727-39.689839-39.80608-39.689839z" opacity=".2"/>
  <path d="m202.95649 15.174464c35.29673 0 39.09461 3.625419 38.92162 38.993529v73.006477 73.00647c.17299 35.36812-3.62489 38.99353-38.92162 38.99353h-146.156758c-35.296716 0-38.921616-3.625-38.921616-38.99353v-73.00647-73.006477c0-35.36853 3.6249-38.993529 38.921616-38.993529z" fill="#c01c28"/>
  <path d="m56.805392 15.174464c-35.296728 0-39.09487 3.626029-38.92188 38.994139v2c-.17299-35.36811 3.625152-38.99414 38.92188-38.99414h146.156238c35.29673 0 38.92188 3.62561 38.92188 38.99414v-2c0-35.36853-3.62515-38.994139-38.92188-38.994139z" fill="#fff" opacity=".3"/>
  <path d="m56.810792 239.17447c-35.296731 0-39.094875-3.62603-38.921885-38.99414v-2c-.17299 35.36811 3.625154 38.99414 38.921885 38.99414h146.156238c35.29673 0 38.92188-3.62561 38.92188-38.99414v2c0 35.36853-3.62515 38.99414-38.92188 38.99414z" opacity=".2"/>
  <path d="m366.2712 121.55471c3.616-1.26006 11.09513.41502 12.47556 7.49588 4.63655-5.80086 6.69785-13.07274-2.24221-19.84221-2.87335-2.16935-6.19151-3.67557-9.71594-4.40935-6.79827-1.39816-10.87113-1.32308-16.44134 1.64184s-9.80751 9.29329-10.464 13.79077c-1.06264 7.29944 1.98179 22.04923 12.70621 30.86572 10.95064 10.92529 28.37956 11.6955 34.37685 11.0235 28.92454-3.2443 49.37351-28.38523 28.39925-52.91248-7.35877-8.08394-19.05206-12.609235-28.39925-16.902644-16.91815-7.771565-32.69636-12.720486-41.85057-20.576975-8.84184-7.587442-11.68221-17.650946-10.46276-28.66091 1.11335-10.060303 7.26941-18.635068 14.19913-24.250573 15.69525-12.722702 38.92847-12.3972869 62.77609-1.469784l13.45206-2.939568c1.68714.5088 2.93957 1.98523 3.73735 4.409352.33329 1.679507-1.74227 3.30806-1.49514 4.887136 6.09428 19.871991 1.00308 33.883554-11.95691 37.735613l-3.73736-1.469783c4.45465-9.188181 4.46228-18.000484 0-26.456111-9.81341-11.66498-20.77389-17.2987-32.88146-16.901408-37.79321 1.236922-35.75949 39.246259-5.23273 47.76687 4.66215 2.326153 27.61155 10.200365 35.1249 13.820794 10.28997 4.958029 17.51433 10.149903 21.67286 15.575131 12.26042 20.29464 11.32454 45.83163-5.23151 61.73119-16.36405 15.71421-50.00269 17.19827-76.22815 8.08394l-12.70399 2.20455c-2.33945-.13243-3.82573-.85957-4.48443-2.20455l-.74708-12.49329c-12.39827-26.7013 3.84344-52.387195 26.15728-53.647255 11.66006-.65896 25.88134 6.046765 29.89242 16.167625 4.0384 10.18929-3.808 23.60148-10.46178 26.45514-6.65501 2.85563-18.29292-2.43323-16.44258-11.02228.74363-3.45182 3.28492-6.47729 6.20923-7.49588z" fill="#f6f5f4" stroke-width="2.461537" transform="translate(-252.74576 37.966102)"/>
</svg>

<?xml version="1.0" encoding="UTF-8" standalone="no"?>
<svg
   xmlns:dc="http://purl.org/dc/elements/1.1/"
   xmlns:cc="http://creativecommons.org/ns#"
   xmlns:rdf="http://www.w3.org/1999/02/22-rdf-syntax-ns#"
   xmlns:svg="http://www.w3.org/2000/svg"
   xmlns="http://www.w3.org/2000/svg"
   xmlns:xlink="http://www.w3.org/1999/xlink"
   xmlns:sodipodi="http://sodipodi.sourceforge.net/DTD/sodipodi-0.dtd"
   xmlns:inkscape="http://www.inkscape.org/namespaces/inkscape"
   style="enable-background:new"
   width="256"
   height="256"
   version="1.0"
   viewBox="0 0 256 256"
   id="svg47"
   sodipodi:docname="2.svg"
   inkscape:version="0.92.4 (5da689c313, 2019-01-14)">
  <metadata
     id="metadata51">
    <rdf:RDF>
      <cc:Work
         rdf:about="">
        <dc:format>image/svg+xml</dc:format>
        <dc:type
           rdf:resource="http://purl.org/dc/dcmitype/StillImage" />
        <dc:title>
  Adwaita Icon Template
 </dc:title>
      </cc:Work>
    </rdf:RDF>
  </metadata>
  <sodipodi:namedview
     pagecolor="#ffffff"
     bordercolor="#666666"
     borderopacity="1"
     objecttolerance="10"
     gridtolerance="10"
     guidetolerance="10"
     inkscape:pageopacity="0"
     inkscape:pageshadow="2"
     inkscape:window-width="1920"
     inkscape:window-height="1016"
     id="namedview49"
     showgrid="false"
     showguides="false"
     inkscape:zoom="0.921875"
     inkscape:cx="128"
     inkscape:cy="128"
     inkscape:window-x="0"
     inkscape:window-y="27"
     inkscape:window-maximized="1"
     inkscape:current-layer="g1029" />
  <title
     id="title4162">
  Adwaita Icon Template
 </title>
  <defs
     id="defs27">
    <linearGradient
       id="linearGradient1115">
      <stop
         id="stop1103"
         offset="0"
         style="stop-color:#d5d3cf" />
      <stop
         style="stop-color:#e3e2df"
         id="stop1105"
         offset=".038" />
      <stop
         style="stop-color:#c0bfbc"
         id="stop1107"
         offset=".077" />
      <stop
         style="stop-color:#c0bfbc"
         id="stop1109"
         offset=".923" />
      <stop
         style="stop-color:#e3e2df"
         id="stop1111"
         offset=".962" />
      <stop
         id="stop1113"
         offset="1"
         style="stop-color:#d5d3cf" />
    </linearGradient>
    <linearGradient
       id="linearGradient6058">
      <stop
         style="stop-color:#ffffff"
         id="stop6054"
         offset="0" />
      <stop
         style="stop-color:#f6f5f4"
         id="stop6056"
         offset="1" />
    </linearGradient>
    <linearGradient
       id="paint3_linear-2-6-5"
       x2="1"
       gradientTransform="matrix(0,6,-12,0,-64,209.99687)"
       gradientUnits="userSpaceOnUse">
      <stop
         id="stop91-0-7-4"
         stop-color="#C01C27" />
      <stop
         id="stop93-2-5-7"
         offset="1"
         stop-color="#E01B24" />
    </linearGradient>
    <linearGradient
       id="linearGradient1097"
       x1="43.844"
       x2="-60"
       y1="234"
       y2="234"
       gradientTransform="matrix(1.0015061,0,0,0.99993452,72.09037,56.015192)"
       gradientUnits="userSpaceOnUse"
       xlink:href="#linearGradient1115" />
    <radialGradient
       id="radialGradient1099"
       cx="-24.239"
       cy="225.596"
       r="24"
       fx="-24.239"
       fy="225.596"
       gradientTransform="matrix(1.757743,-9.5621778e-8,3.7652438e-8,1.9495846,106.60563,-336.54495)"
       gradientUnits="userSpaceOnUse"
       xlink:href="#linearGradient6058" />
    <linearGradient
       id="linearGradient1383"
       x2="1"
       gradientTransform="matrix(0,6,-12,0,-264,209.99687)"
       gradientUnits="userSpaceOnUse"
       xlink:href="#paint3_linear-2-6-5" />
    <linearGradient
       id="linearGradient4358"
       x1="88"
       x2="488"
       y1="88"
       y2="488"
       gradientUnits="userSpaceOnUse"
       xlink:href="#linearGradient4360" />
    <linearGradient
       id="linearGradient4360">
      <stop
         id="stop4362"
         offset="0"
         style="stop-color:#000000;stop-opacity:0.58823532" />
      <stop
         id="stop4366"
         offset="1"
         style="stop-color:#000000;stop-opacity:0.20555556" />
    </linearGradient>
    <filter
       style="color-interpolation-filters:sRGB"
       id="filter4380"
       width="1.106"
       height="1.088"
       x="-.05"
       y="-.04">
      <feGaussianBlur
         id="feGaussianBlur4382"
         stdDeviation="8.48" />
    </filter>
    <filter
       style="color-interpolation-filters:sRGB"
       id="filter4346"
       width="1.026"
       height="1.022"
       x="-.01"
       y="-.01">
      <feGaussianBlur
         id="feGaussianBlur4348"
         stdDeviation="2.12" />
    </filter>
    <linearGradient
       id="linearGradient987">
      <stop
         style="stop-color:#e66100;stop-opacity:1"
         offset="0"
         id="stop975" />
      <stop
         offset=".042"
         id="stop977"
         style="stop-color:#ffbe6f;stop-opacity:1" />
      <stop
         style="stop-color:#e66100;stop-opacity:1"
         offset=".083"
         id="stop979" />
      <stop
         offset=".917"
         id="stop981"
         style="stop-color:#e66100;stop-opacity:1" />
      <stop
         style="stop-color:#ffbe6f;stop-opacity:1"
         offset=".958"
         id="stop983" />
      <stop
         style="stop-color:#c64600;stop-opacity:1"
         offset="1"
         id="stop985" />
    </linearGradient>
    <radialGradient
       xlink:href="#linearGradient897"
       gradientUnits="userSpaceOnUse"
       gradientTransform="matrix(1.4599987,-1.4599987,0.02960147,0.02960147,-490.51932,677.57967)"
       fy="151"
       fx="405"
       r="48"
       cy="151"
       cx="405"
       id="radialGradient902" />
    <linearGradient
       id="linearGradient897">
      <stop
         style="stop-color:#f6d32d"
         offset="0"
         id="stop893" />
      <stop
         style="stop-color:#fcf9c0"
         offset="1"
         id="stop895" />
    </linearGradient>
    <clipPath
       clipPathUnits="userSpaceOnUse"
       id="clipPath2213">
      <rect
         id="rect14"
         style="fill:none;stroke:#000000"
         ry="8"
         rx="8"
         y="-188"
         x="160"
         height="56"
         width="16" />
    </clipPath>
    <linearGradient
       xlink:href="#linearGradient987"
       gradientUnits="userSpaceOnUse"
       y2="204"
       y1="204"
       x2="45.963"
       x1="461.963"
       id="linearGradient973" />
    <linearGradient
       gradientUnits="userSpaceOnUse"
       y2="74"
       y1="74"
       x2="116"
       x1="12"
       id="paint0_linear">
      <stop
         id="stop976"
         stop-color="#A51D2D" />
    </linearGradient>
    <linearGradient
       gradientUnits="userSpaceOnUse"
       y2="79"
       y1="79"
       x2="116"
       x1="108"
       id="paint1_linear">
      <stop
         id="stop979-7"
         stop-color="#E8E7E4" />
      <stop
         id="stop981-5"
         stop-color="#fff"
         offset=".511" />
      <stop
         id="stop983-3"
         stop-color="#C2BFBA"
         offset="1" />
    </linearGradient>
    <linearGradient
       gradientUnits="userSpaceOnUse"
       y2="61"
       y1="61"
       x2="116"
       x1="12"
       id="paint2_linear">
      <stop
         id="stop986"
         stop-color="#A51D2D" />
    </linearGradient>
    <linearGradient
       gradientUnits="userSpaceOnUse"
       y2="59"
       y1="59"
       x2="116"
       x1="12"
       id="paint3_linear">
      <stop
         id="stop989"
         stop-color="#C01C28" />
    </linearGradient>
    <linearGradient
       gradientUnits="userSpaceOnUse"
       y2="60"
       y1="60"
       x2="88"
       x1="42.5"
       id="paint4_linear">
      <stop
         id="stop992"
         stop-color="#241F31" />
    </linearGradient>
    <linearGradient
       gradientUnits="userSpaceOnUse"
       y2="59"
       y1="59"
       x2="86.75"
       x1="41.25"
       id="paint5_linear"
       gradientTransform="matrix(2.4615373,0,0,2.4615373,225.08823,-56.022318)">
      <stop
         id="stop995"
         stop-color="#F6F5F4" />
    </linearGradient>
  </defs>
  <path
     style="opacity:0.1;filter:url(#filter4346)"
     d="M 141.84323,74 C 71.24979,74 63.65402,81.250835 64,151.98706 V 298 444.01294 C 63.65402,514.74917 71.24979,522 141.84323,522 H 434.15677 C 504.75021,522 513.9371,514.72348 512,444.01294 V 298 151.98706 C 512,81.249993 504.75021,74 434.15677,74 Z"
     transform="matrix(0.5,0,0,0.5,-14.116488,-20.825537)"
     id="path29" />
  <path
     d="M 141.84323,74 C 71.24979,74 63.65402,81.250835 64,151.98706 V 298 444.01294 C 63.65402,514.74917 71.24979,522 141.84323,522 H 434.15677 C 504.75021,522 513.9371,514.72348 512,444.01294 V 298 151.98706 C 512,81.249993 504.75021,74 434.15677,74 Z"
     transform="matrix(0.5,0,0,0.5,-14.116488,-20.825235)"
     style="opacity:0.3;fill:url(#linearGradient4358);filter:url(#filter4380)"
     id="path31" />
  <path
     style="opacity:0.2"
     d="m 55.695112,13.174464 c -36.098811,0 -39.983003,3.690159 -39.806081,39.689839 v 74.310167 74.31016 c -0.176922,35.99969 3.70727,39.68984 39.806081,39.68984 H 204.08243 c 36.09881,0 40.77464,-3.70276 39.80608,-39.68984 V 127.17447 52.864303 c 0,-36.00011 -3.70727,-39.689839 -39.80608,-39.689839 z"
     id="path33" />
  <path
     style="fill:#c01c28;fill-opacity:1"
     d="m 202.95649,15.174464 c 35.29673,0 39.09461,3.625419 38.92162,38.993529 v 73.006477 73.00647 c 0.17299,35.36812 -3.62489,38.99353 -38.92162,38.99353 H 56.799732 c -35.296716,0 -38.921616,-3.625 -38.921616,-38.99353 V 127.17447 54.167993 c 0,-35.36853 3.6249,-38.993529 38.921616,-38.993529 z"
     id="path35" />
  <path
     style="opacity:0.3;fill:#ffffff"
     d="m 56.805392,15.174464 c -35.296728,0 -39.09487,3.626029 -38.92188,38.994139 v 2 c -0.17299,-35.36811 3.625152,-38.99414 38.92188,-38.99414 H 202.96163 c 35.29673,0 38.92188,3.62561 38.92188,38.99414 v -2 c 0,-35.36853 -3.62515,-38.994139 -38.92188,-38.994139 z"
     id="path37" />
  <path
     style="opacity:0.2"
     d="m 56.810792,239.17447 c -35.296731,0 -39.094875,-3.62603 -38.921885,-38.99414 v -2 c -0.17299,35.36811 3.625154,38.99414 38.921885,38.99414 H 202.96703 c 35.29673,0 38.92188,-3.62561 38.92188,-38.99414 v 2 c 0,35.36853 -3.62515,38.99414 -38.92188,38.99414 z"
     id="path39" />
  <g
     style="fill:none"
     id="g1029"
     transform="translate(-252.74576,37.966102)">
    <path
       id="path974"
       d="m 366.2712,121.55471 c 3.616,-1.26006 11.09513,0.41502 12.47556,7.49588 4.63655,-5.80086 6.69785,-13.07274 -2.24221,-19.84221 -2.87335,-2.16935 -6.19151,-3.67557 -9.71594,-4.40935 -6.79827,-1.39816 -10.87113,-1.32308 -16.44134,1.64184 -5.57021,2.96492 -9.80751,9.29329 -10.464,13.79077 -1.06264,7.29944 1.98179,22.04923 12.70621,30.86572 10.95064,10.92529 28.37956,11.6955 34.37685,11.0235 28.92454,-3.2443 49.37351,-28.38523 28.39925,-52.91248 C 408.00681,101.12444 396.31352,96.599145 386.96633,92.305736 370.04818,84.534171 354.26997,79.58525 345.11576,71.728761 336.27392,64.141319 333.43355,54.077815 334.653,43.067851 335.76635,33.007548 341.92241,24.432783 348.85213,18.817278 364.54738,6.094576 387.7806,6.4199911 411.62822,17.347494 l 13.45206,-2.939568 c 1.68714,0.5088 2.93957,1.98523 3.73735,4.409352 0.33329,1.679507 -1.74227,3.30806 -1.49514,4.887136 6.09428,19.871991 1.00308,33.883554 -11.95691,37.735613 l -3.73736,-1.469783 c 4.45465,-9.188181 4.46228,-18.000484 0,-26.456111 -9.81341,-11.66498 -20.77389,-17.2987 -32.88146,-16.901408 -37.79321,1.236922 -35.75949,39.246259 -5.23273,47.76687 4.66215,2.326153 27.61155,10.200365 35.1249,13.820794 10.28997,4.958029 17.51433,10.149903 21.67286,15.575131 12.26042,20.29464 11.32454,45.83163 -5.23151,61.73119 -16.36405,15.71421 -50.00269,17.19827 -76.22815,8.08394 l -12.70399,2.20455 c -2.33945,-0.13243 -3.82573,-0.85957 -4.48443,-2.20455 l -0.74708,-12.49329 c -12.39827,-26.7013 3.84344,-52.387195 26.15728,-53.647255 11.66006,-0.65896 25.88134,6.046765 29.89242,16.167625 4.0384,10.18929 -3.808,23.60148 -10.46178,26.45514 -6.65501,2.85563 -18.29292,-2.43323 -16.44258,-11.02228 0.74363,-3.45182 3.28492,-6.47729 6.20923,-7.49588 z"
       inkscape:connector-curvature="0"
       style="fill:url(#paint5_linear);stroke-width:2.46153736" />
  </g>
</svg>
